src/assets/seal.svg

<svg width="88" height="89" viewBox="0 0 88 89" fill="none" xmlns="http://www.w3.org/2000/svg">
<path d="M53.2206 33.1029L50.0491 32.6411C49.9519 32.6411 49.8547 32.6411 49.8547 32.7381L48.512 34.4607C48.4354 34.5731 48.401 34.7088 48.4148 34.844C48.4148 34.941 48.3176 35.1349 48.225 35.038L47.1648 34.7516C46.9749 34.7516 46.7805 34.7516 46.7018 34.941L42.3775 40.4828C42.2803 40.5798 42.1831 40.5798 41.9933 40.5798L40.3589 39.8132C40.2896 39.7697 40.2093 39.7467 40.1274 39.7467C40.0455 39.7467 39.9653 39.7697 39.8959 39.8132L38.9885 40.3951C38.9196 40.4396 38.8392 40.4633 38.757 40.4633C38.6749 40.4633 38.5945 40.4396 38.5255 40.3951L38.1413 40.2057C38.0787 40.1775 38.0109 40.1626 37.9423 40.1619C37.8736 40.1612 37.8056 40.1748 37.7425 40.2017C37.6794 40.2286 37.6225 40.2683 37.5756 40.3183C37.5287 40.3683 37.4927 40.4275 37.4699 40.4921L37.1782 41.8314C37.1436 41.9736 37.153 42.1229 37.205 42.2597C37.2571 42.3966 37.3494 42.5145 37.4699 42.598L38.2385 43.0598L40.2525 44.3067L41.2155 44.8794C41.3506 44.9585 41.5077 44.9923 41.6636 44.9757C41.8195 44.959 41.9659 44.8929 42.0812 44.787L43.7109 43.3461C43.8513 43.2664 44.0136 43.234 44.1739 43.2538L44.6369 43.5401C44.8267 43.6371 45.0212 43.6371 45.0999 43.4431L45.961 42.6765C46.0203 42.617 46.0957 42.5761 46.178 42.5589C46.2602 42.5417 46.3458 42.5488 46.424 42.5795L47.6741 43.1568C47.7704 43.1883 47.8731 43.1959 47.9731 43.1791C48.0731 43.1622 48.1675 43.1212 48.2481 43.0598L48.8269 42.2932L53.1511 36.7513C53.3409 36.4604 53.2437 36.0771 52.8594 36.0771L51.952 35.8739C51.7575 35.8739 51.6649 35.5875 51.7575 35.412L53.2946 33.5925C53.5076 33.3985 53.4104 33.1029 53.2206 33.1029Z" fill="white"/>
<path d="M38.808 44.3252C38.7108 44.2282 38.6182 44.3252 38.6182 44.4222L39.0812 45.6645V45.9554L38.6969 47.581C38.6903 47.6337 38.6957 47.6872 38.7125 47.7375C38.7293 47.7879 38.7572 47.8338 38.7941 47.872L39.947 48.731C40.0002 48.7774 40.0684 48.803 40.1391 48.803C40.2098 48.803 40.2781 48.7774 40.3312 48.731L41.5813 47.678C41.6187 47.6413 41.6639 47.6134 41.7137 47.5966C41.7634 47.5799 41.8163 47.5745 41.8684 47.581L43.2156 47.3917C43.3082 47.3917 43.3082 47.2947 43.2156 47.1977L38.808 44.3252Z" fill="white"/>
<path d="M38.4236 48.4445C38.4073 48.4216 38.3858 48.403 38.3608 48.3901C38.3359 48.3772 38.3082 48.3705 38.2801 48.3705C38.2519 48.3705 38.2243 48.3772 38.1993 48.3901C38.1743 48.403 38.1528 48.4216 38.1365 48.4445L37.1735 48.9063C37.161 48.9063 37.1485 48.9088 37.137 48.9137C37.1254 48.9187 37.115 48.9259 37.1064 48.935C37.0977 48.944 37.091 48.9548 37.0866 48.9665C37.0822 48.9783 37.0803 48.9908 37.0809 49.0033L34.9651 54.1757H35.0623L35.5253 53.9863V54.0787L33.9882 56.5725C33.9882 56.6695 33.9882 56.6695 34.0808 56.6695L39.4607 51.2062C39.5579 51.2062 39.5579 51.1092 39.5579 51.0122L39.6551 49.5759C39.6551 49.479 39.6551 49.3866 39.5579 49.3866L38.4236 48.4445Z" fill="white"/>
<path d="M32.9975 88.5815L30.8677 84.6052L34.5716 82.0421L35.2846 83.035L34.1132 83.8247C33.9132 83.9682 33.7044 84.0993 33.4882 84.2173C33.2928 84.3282 33.0884 84.4224 32.8771 84.499L36.8587 85.4596L36.5856 86.5864L32.5947 85.6212C32.6994 85.7285 32.7969 85.8427 32.8863 85.963C32.9743 86.0784 33.0576 86.2031 33.141 86.3371L33.3956 86.7989L34.0716 88.0366L32.9975 88.5815Z" fill="#FFCD1E"/>
<path d="M15.5524 73.3876C16.1867 72.6626 17.196 72.5887 18.0988 73.3876L19.9507 75.0086L16.2468 79.2251L14.7746 77.8996C13.8116 77.0591 13.4597 76.177 14.1356 75.4012C14.2813 75.2189 14.4774 75.0832 14.6996 75.011C14.9218 74.9387 15.1603 74.9331 15.3857 74.9948C15.2195 74.7501 15.1451 74.4549 15.1756 74.1609C15.2061 73.867 15.3395 73.5932 15.5524 73.3876ZM16.8765 76.9067L16.1265 76.2555C15.6635 75.8445 15.2653 75.7291 15.0246 76.0062C14.7838 76.2833 14.9505 76.6481 15.4274 77.0591L16.1728 77.7103L16.8765 76.9067ZM16.2746 74.1727C15.9459 74.5514 16.1218 75.0132 16.6404 75.4658L17.4923 76.2047L18.4599 75.101L17.608 74.3621C17.0895 73.9095 16.608 73.7894 16.2746 74.1727Z" fill="white"/>
<path d="M7.20941 69.5361L9.76508 67.5964C10.9411 66.7005 12.2883 66.719 13.1541 67.8504C14.0199 68.9819 13.6773 70.2842 12.5013 71.1755L9.94564 73.1152L9.3021 72.2747L11.9596 70.2519C12.1031 70.1648 12.2266 70.0486 12.3222 69.9109C12.4178 69.7731 12.4833 69.6169 12.5145 69.4523C12.5457 69.2877 12.5419 69.1183 12.5033 68.9553C12.4647 68.7922 12.3922 68.6391 12.2905 68.5058C12.1888 68.3725 12.0601 68.2619 11.9129 68.1814C11.7656 68.1008 11.603 68.052 11.4356 68.0381C11.2683 68.0242 11.0998 68.0456 10.9413 68.1007C10.7827 68.1559 10.6375 68.2437 10.5151 68.3584L7.85296 70.3766L7.20941 69.5361Z" fill="white"/>
<path d="M9.84386 63.0104L4.88069 65.6197L4.38531 64.696L9.35773 62.0729L9.84386 63.0104Z" fill="white"/>
<path d="M5.69074 55.866L6.70005 55.5197L7.78343 58.6462L2.47303 60.4935L2.12579 59.4913L6.42226 58.0135L5.69074 55.866Z" fill="white"/>
<path d="M2.41298 47.8304C3.95008 47.6179 5.33439 48.5 5.58903 50.3427L5.84368 52.19L0.287898 52.952L0.0378844 51.1047C-0.221385 49.2112 0.880513 48.0382 2.41298 47.8304ZM2.55651 48.8787C2.33133 48.8989 2.11267 48.9647 1.91397 49.0723C1.71527 49.1799 1.54073 49.3269 1.40109 49.5042C1.26145 49.6816 1.15967 49.8856 1.10199 50.1036C1.04431 50.3217 1.03196 50.5492 1.0657 50.7722L1.19534 51.742L4.63992 51.2802L4.50566 50.315C4.47824 50.0912 4.40551 49.8754 4.29187 49.6806C4.17823 49.4858 4.02607 49.316 3.84463 49.1817C3.66318 49.0473 3.45624 48.9512 3.2364 48.8991C3.01655 48.847 2.78838 48.8401 2.56576 48.8787H2.55651Z" fill="white"/>
<path d="M0.811023 34.0266L1.86199 34.2344L1.57494 35.6661L6.03346 36.5528L5.82511 37.5919L1.36659 36.7052L1.07955 38.1322L0.0332031 37.9244L0.811023 34.0266Z" fill="white"/>
<path d="M3.87586 25.5338L9.052 27.6998L8.63995 28.6788L6.54264 27.8014L5.61668 29.9996L7.71399 30.8771L7.30193 31.8515L2.12579 29.6856L2.53784 28.7065L4.63053 29.584L5.55649 27.3857L3.4638 26.5083L3.87586 25.5338Z" fill="white"/>
<path d="M7.7002 21.0955L8.69561 21.7698L9.8114 20.1257L10.6957 20.7215L9.57991 22.3655L10.5753 23.0398L11.918 21.0678L12.8023 21.6636L10.8624 24.513L6.23254 21.3726L8.1678 18.5232L9.0521 19.1236L7.7002 21.0955Z" fill="white"/>
<path d="M18.8906 15.2164L15.4553 10.7875L18.1869 8.68164L18.8397 9.52215L16.9507 10.9815L17.6915 11.9329L19.2656 10.7137L19.923 11.5588L18.3396 12.7826L19.7286 14.5745L18.8906 15.2164Z" fill="white"/>
<path d="M25.9278 4.28516L27.3676 7.14383C28.0297 8.46002 27.7658 9.77621 26.4926 10.4181C25.2194 11.0601 23.9971 10.4828 23.3351 9.16199L21.8952 6.31717L22.8443 5.85535L24.3444 8.82948C24.4161 8.96988 24.5149 9.0948 24.635 9.19713C24.7552 9.29945 24.8944 9.37717 25.0446 9.42584C25.1949 9.47452 25.3533 9.49319 25.5107 9.48081C25.6682 9.46842 25.8217 9.42521 25.9625 9.35364C26.1032 9.28208 26.2285 9.18356 26.3311 9.06372C26.4337 8.94387 26.5116 8.80505 26.5604 8.65517C26.6092 8.50529 26.6279 8.34729 26.6155 8.19019C26.6031 8.0331 26.5597 7.87998 26.488 7.73958L24.9879 4.76083L25.9278 4.28516Z" fill="white"/>
<path d="M33.8957 1.67139L34.1781 2.69663L32.7892 3.08456L33.9976 7.45801L32.9698 7.7351L31.766 3.36627L30.3771 3.7542L30.09 2.72434L33.8957 1.67139Z" fill="white"/>
<path d="M42.7481 0.581421L42.9796 3.7726C43.0861 5.2412 42.3314 6.35419 40.9101 6.45579C39.4887 6.55739 38.5952 5.56447 38.4794 4.09126L38.2479 0.904694L39.3082 0.826186L39.5443 4.1513C39.5363 4.32081 39.5643 4.4901 39.6267 4.648C39.689 4.8059 39.7842 4.94882 39.906 5.06734C40.0278 5.18586 40.1733 5.27729 40.3331 5.33559C40.4929 5.3939 40.6633 5.41776 40.833 5.4056C41.0026 5.39344 41.1678 5.34553 41.3176 5.26505C41.4674 5.18456 41.5984 5.07331 41.7019 4.93864C41.8054 4.80398 41.8792 4.64895 41.9183 4.48378C41.9573 4.31861 41.9609 4.14706 41.9286 3.98043L41.6879 0.655312L42.7481 0.581421Z" fill="white"/>
<path d="M49.6371 6.66406L48.6325 4.65052L47.9982 4.57201L47.7621 6.41929L46.7065 6.28075L47.4241 0.738892L49.401 0.992895C50.8409 1.17762 51.4057 2.04123 51.253 3.11727C51.2084 3.50934 51.0392 3.8769 50.7701 4.1661C50.501 4.4553 50.1462 4.65096 49.7575 4.72441L50.9057 6.83493L49.6371 6.66406ZM48.1371 3.51444L49.1927 3.64837C49.3044 3.67258 49.4198 3.67426 49.5321 3.65331C49.6444 3.63235 49.7514 3.58918 49.8468 3.52635C49.9421 3.46352 50.0239 3.38229 50.0873 3.28744C50.1507 3.1926 50.1944 3.08606 50.2159 2.97411C50.2303 2.85833 50.2199 2.74081 50.1853 2.62936C50.1507 2.51791 50.0927 2.41508 50.0152 2.32771C49.9377 2.24034 49.8424 2.17043 49.7357 2.12263C49.629 2.07482 49.5134 2.05022 49.3964 2.05046L48.3408 1.91654L48.1371 3.51444Z" fill="white"/>
<path d="M56.6421 3.65713L56.2671 4.79783L58.156 5.42129L57.8227 6.43268L55.9337 5.80922L55.5587 6.94992L57.8273 7.69807L57.5078 8.70945L54.2346 7.62879L55.9893 2.31323L59.2672 3.38928L58.9338 4.40528L56.6421 3.65713Z" fill="white"/>
<path d="M71.5362 8.98682L71.8417 13.485L67.3925 14.2978L67.1517 13.0924L68.5407 12.8523C68.7953 12.8061 69.0407 12.7691 69.2722 12.7507C69.4956 12.7322 69.7201 12.7322 69.9435 12.7507L66.7026 10.2384L67.4156 9.31471L70.6565 11.827C70.6042 11.6871 70.5624 11.5436 70.5315 11.3975C70.4961 11.2455 70.4713 11.0912 70.4574 10.9357C70.4574 10.7833 70.4204 10.6078 70.4065 10.4231L70.3 9.03762L71.5362 8.98682Z" fill="#FFCD1E"/>
<path d="M79.0829 29.353L80.2496 27.4318L79.981 26.8545L78.2865 27.6396L77.8235 26.679L82.9163 24.3237L83.759 26.1248C84.3701 27.4364 83.9395 28.3739 82.958 28.8311C82.6014 29.0028 82.199 29.056 81.8099 28.9829C81.4207 28.9098 81.0654 28.7141 80.7959 28.4247L79.6199 30.5214L79.0829 29.353ZM80.9348 26.4065L81.3978 27.3671C81.4368 27.4746 81.497 27.5731 81.5749 27.657C81.6528 27.7408 81.7468 27.8081 81.8513 27.8551C81.9558 27.902 82.0686 27.9276 82.1832 27.9302C82.2977 27.9329 82.4116 27.9126 82.5182 27.8705C82.6226 27.8202 82.7151 27.7484 82.7897 27.6598C82.8642 27.5712 82.919 27.4678 82.9505 27.3565C82.982 27.2452 82.9895 27.1285 82.9724 27.0141C82.9554 26.8997 82.9142 26.7902 82.8515 26.6929L82.3885 25.7323L80.9348 26.4065Z" fill="white"/>
<path d="M84.6615 38.2848C84.0982 38.4079 83.511 38.3621 82.9737 38.1529C82.4365 37.9438 81.9734 37.5807 81.6427 37.1095C81.3119 36.6382 81.1284 36.0799 81.1153 35.5048C81.1021 34.9297 81.2599 34.3636 81.5687 33.8778C81.8775 33.3919 82.3236 33.0082 82.8507 32.7748C83.3777 32.5414 83.9623 32.4688 84.5307 32.5663C85.099 32.6637 85.6258 32.9267 86.0445 33.3222C86.4633 33.7177 86.7553 34.228 86.8839 34.7888C87.0537 35.5463 86.915 36.3401 86.4983 36.9957C86.0815 37.6512 85.4209 38.1149 84.6615 38.2848ZM84.4254 37.2503C84.7809 37.1655 85.1032 36.9777 85.3519 36.7105C85.6005 36.4434 85.7644 36.1088 85.8228 35.7489C85.8812 35.3891 85.8316 35.02 85.6802 34.6882C85.5287 34.3564 85.2823 34.0768 84.9718 33.8844C84.6614 33.6921 84.3008 33.5957 83.9355 33.6073C83.5702 33.619 83.2166 33.7382 82.9191 33.9499C82.6216 34.1616 82.3935 34.4564 82.2636 34.7972C82.1338 35.1379 82.1079 35.5094 82.1892 35.8648C82.2427 36.1037 82.3432 36.3296 82.4849 36.5294C82.6267 36.7292 82.8068 36.899 83.0149 37.0287C83.2229 37.1585 83.4548 37.2457 83.6969 37.2853C83.9391 37.325 84.1867 37.3162 84.4254 37.2595V37.2503Z" fill="white"/>
<path d="M83.7866 46.3618L82.8236 46.7821C82.3837 46.2868 82.1343 45.6518 82.1199 44.9902C82.1138 44.6051 82.1838 44.2226 82.3259 43.8645C82.4681 43.5063 82.6795 43.1797 82.9482 42.9031C83.2169 42.6265 83.5376 42.4054 83.892 42.2524C84.2463 42.0994 84.6274 42.0175 85.0135 42.0115C85.3996 42.0054 85.7831 42.0753 86.1421 42.217C86.5011 42.3588 86.8286 42.5697 87.1059 42.8377C87.3832 43.1058 87.6049 43.4257 87.7582 43.7791C87.9116 44.1326 87.9936 44.5127 87.9997 44.8979C88.0098 45.558 87.7832 46.1999 87.3608 46.7082L86.3839 46.3203C86.7422 45.9485 86.9386 45.4504 86.9302 44.9348C86.9121 44.6354 86.8212 44.3449 86.6654 44.0884C86.5095 43.8319 86.2934 43.6171 86.0356 43.4626C85.7779 43.3081 85.4863 43.2185 85.1861 43.2016C84.8859 43.1847 84.5861 43.241 84.3125 43.3655C84.039 43.4901 83.8 43.6793 83.6162 43.9166C83.4323 44.154 83.3092 44.4324 83.2574 44.7279C83.2056 45.0233 83.2268 45.3269 83.319 45.6124C83.4112 45.8979 83.5717 46.1567 83.7866 46.3664V46.3618Z" fill="white"/>
<path d="M81.0318 54.573L81.2957 53.2568L84.1106 51.6728L81.7031 51.211L81.9115 50.1719L87.4163 51.2572L87.208 52.2962L84.9301 51.8344L86.8283 54.2174L86.5644 55.529L84.3977 52.6749L81.0318 54.573Z" fill="white"/>
<path d="M83.8327 60.3504L82.7169 59.8886L81.9623 61.7359L80.9761 61.3341L81.7261 59.4868L80.615 59.025L79.689 61.2279L78.6982 60.8261L79.9992 57.6395L85.1985 59.7547L83.8929 62.9412L82.9067 62.5394L83.8327 60.3504Z" fill="white"/>
<path d="M79.7309 70.178L78.8513 69.5868L79.643 68.363L75.8234 65.9061L76.3975 65.0194L80.2171 67.4763L81.0134 66.2525L81.9116 66.8297L79.7309 70.178Z" fill="white"/>
<path d="M71.1471 74.0572C70.4202 73.3644 70.3739 72.2607 71.3971 71.1985C71.6833 70.8875 72.031 70.6392 72.4183 70.469C72.8056 70.2989 73.224 70.2108 73.6472 70.2102L73.9528 71.2401C73.6206 71.2306 73.29 71.2888 72.9811 71.4111C72.6723 71.5333 72.3916 71.7172 72.1564 71.9513C71.6471 72.4824 71.5499 72.9765 71.8323 73.249C72.1147 73.5215 72.536 73.3691 73.1194 72.9211C74.3926 71.9467 75.1982 71.9697 75.8093 72.5563C76.4205 73.1428 76.5547 74.3112 75.5917 75.3272C75.115 75.839 74.4721 76.1662 73.7768 76.2508L73.425 75.2949C73.9535 75.2285 74.4436 74.9841 74.8139 74.6021C75.2074 74.1957 75.4343 73.7293 75.1102 73.4152C74.7861 73.1012 74.5083 73.2859 73.8509 73.7708C72.8833 74.4682 72.0129 74.8884 71.1471 74.0572Z" fill="white"/>
<path d="M69.0824 79.405L68.3879 78.426L66.7628 79.5713L66.1471 78.7031L67.7721 77.5577L67.0777 76.5787L65.1239 77.9641L64.5081 77.0913L67.3277 75.1055L70.5685 79.6729L67.749 81.6633L67.1332 80.7905L69.0824 79.405Z" fill="white"/>
<path d="M58.6884 81.257L60.8412 80.301L60.7857 79.1603L61.8783 78.6985L62.0496 84.753L61.17 85.1409L56.7855 80.9522L57.8735 80.4904L58.6884 81.257ZM59.494 82.0652L61.0125 83.5799L60.9014 81.4417L59.494 82.0652Z" fill="white"/>
<path d="M52.0261 87.9581L51.7761 86.919L53.1974 86.5819L52.1465 82.1715L53.1789 81.9268L54.2299 86.3372L55.6512 86L55.9012 87.0345L52.0261 87.9581Z" fill="white"/>
</svg>

<svg xmlns="http://www.w3.org/2000/svg" width="88" height="89" fill="none" xmlns:v="https://vecta.io/nano"><path d="M53.221 33.103l-3.171-.462c-.097 0-.194 0-.194.097l-1.343 1.723a.57.57 0 0 0-.097.383c0 .097-.097.291-.19.194l-1.06-.286c-.19 0-.384 0-.463.189l-4.324 5.542c-.097.097-.194.097-.384.097l-1.634-.767a.43.43 0 0 0-.231-.067c-.081 0-.162.023-.232.067l-.907.582a.43.43 0 0 1-.232.068c-.083 0-.163-.024-.231-.068l-.384-.189c-.063-.028-.13-.043-.199-.044a.49.49 0 0 0-.2.04.5.5 0 0 0-.167.117c-.047.05-.083.109-.106.174l-.292 1.339a.72.72 0 0 0 .292.766l.769.462 2.014 1.247.963.573a.73.73 0 0 0 .448.096c.156-.017.302-.083.418-.189l1.63-1.441a.75.75 0 0 1 .463-.092l.463.286c.19.097.384.097.463-.097l.861-.767a.43.43 0 0 1 .463-.097l1.25.577a.63.63 0 0 0 .299.022c.1-.017.194-.058.275-.119l.579-.767 4.324-5.542c.19-.291.093-.674-.292-.674l-.907-.203c-.194 0-.287-.286-.194-.462l1.537-1.819c.213-.194.116-.49-.074-.49zM38.808 44.325c-.097-.097-.19 0-.19.097l.463 1.242v.291l-.384 1.626c-.007.053-.001.106.016.156a.37.37 0 0 0 .082.135l1.153.859c.053.046.121.072.192.072s.139-.026.192-.072l1.25-1.053c.037-.037.083-.065.132-.081a.35.35 0 0 1 .155-.016l1.347-.189c.093 0 .093-.097 0-.194l-4.408-2.872zm-.384 4.12c-.016-.023-.038-.041-.063-.054s-.053-.02-.081-.02-.056.007-.081.02-.047.032-.063.054l-.963.462c-.012 0-.025.002-.036.007s-.022.012-.031.021-.015.02-.02.032-.006.024-.006.037l-2.116 5.172h.097l.463-.189v.092l-1.537 2.494c0 .097 0 .097.093.097l5.38-5.463c.097 0 .097-.097.097-.194l.097-1.436c0-.097 0-.189-.097-.189l-1.134-.942z" fill="#fff"/><path d="M32.998 88.582l-2.13-3.976 3.704-2.563.713.993-1.171.79c-.2.143-.409.275-.625.393a4 4 0 0 1-.611.282l3.982.961-.273 1.127-3.991-.965c.105.107.202.221.292.342s.171.24.255.374l.255.462.676 1.238-1.074.545z" fill="#ffcd1e"/><path d="M15.552 73.388c.634-.725 1.644-.799 2.546 0l1.852 1.621-3.704 4.216-1.472-1.325c-.963-.841-1.315-1.723-.639-2.498.146-.182.342-.318.564-.39s.461-.078.686-.016c-.166-.245-.241-.54-.21-.834s.164-.568.377-.773zm1.324 3.519l-.75-.651c-.463-.411-.861-.526-1.102-.249s-.074.642.403 1.053l.745.651.704-.804zm-.602-2.734c-.329.379-.153.84.366 1.293l.852.739.968-1.104-.852-.739c-.518-.453-1-.573-1.333-.189zm-9.065-4.637l2.556-1.94c1.176-.896 2.523-.877 3.389.254s.523 2.434-.653 3.325l-2.556 1.94-.644-.841 2.658-2.023a1.2 1.2 0 0 0 .363-.341c.096-.138.161-.294.192-.459s.027-.334-.011-.497a1.19 1.19 0 0 0-.213-.45 1.2 1.2 0 0 0-.855-.468c-.167-.014-.336.007-.494.063a1.2 1.2 0 0 0-.426.258l-2.662 2.018-.644-.84zm2.635-6.526l-4.963 2.61-.495-.924 4.972-2.623.486.938zm-4.153-7.144L6.7 55.52l1.083 3.127-5.31 1.847-.347-1.002 4.296-1.478-.732-2.148zM2.413 47.83c1.537-.212 2.921.67 3.176 2.512l.255 1.847-5.556.762-.25-1.847c-.259-1.894.843-3.066 2.375-3.274zm.144 1.048a1.66 1.66 0 0 0-1.155.625c-.14.177-.241.381-.299.599a1.65 1.65 0 0 0-.036.669l.13.97 3.445-.462-.134-.965a1.66 1.66 0 0 0-.214-.634 1.67 1.67 0 0 0-1.726-.802h-.009zM.811 34.027l1.051.208-.287 1.432 4.459.887-.208 1.039-4.459-.887-.287 1.427-1.046-.208.778-3.898zm3.065-8.493L9.052 27.7l-.412.979-2.097-.877L5.617 30l2.097.877-.412.974-5.176-2.166.412-.979 2.093.878.926-2.198-2.093-.877.412-.974zM7.7 21.096l.995.674 1.116-1.644.884.596-1.116 1.644.995.674 1.343-1.972.884.596-1.94 2.849-4.63-3.14 1.935-2.849.884.6-1.35 1.972zm11.191-5.88l-3.435-4.429 2.732-2.106.653.841-1.889 1.459.741.951 1.574-1.219.657.845-1.583 1.224 1.389 1.792-.838.642zm7.037-10.931l1.44 2.859c.662 1.316.398 2.632-.875 3.274s-2.495.065-3.157-1.256l-1.44-2.845.949-.462 1.5 2.974a1.2 1.2 0 0 0 .291.368 1.21 1.21 0 0 0 .876.284c.157-.012.311-.056.452-.127s.266-.17.369-.29a1.2 1.2 0 0 0 .284-.874 1.2 1.2 0 0 0-.128-.451l-1.5-2.979.94-.476zm7.968-2.614l.282 1.025-1.389.388 1.208 4.373-1.028.277-1.204-4.369-1.389.388-.287-1.03 3.806-1.053zm8.852-1.09l.231 3.191c.107 1.469-.648 2.582-2.069 2.683s-2.315-.891-2.431-2.365L38.248.905l1.06-.079.236 3.325a1.2 1.2 0 0 0 .362.916 1.19 1.19 0 0 0 .427.268c.16.058.33.082.5.07s.335-.06.485-.141a1.2 1.2 0 0 0 .611-1.284L41.688.655l1.06-.074zm6.889 6.083L48.632 4.65l-.634-.079-.236 1.847-1.056-.139.718-5.542 1.977.254c1.44.185 2.005 1.048 1.852 2.124a1.85 1.85 0 0 1-1.496 1.607l1.148 2.111-1.269-.171zm-1.5-3.15l1.056.134a.86.86 0 0 0 .654-.122c.095-.063.177-.144.24-.239a.87.87 0 0 0 .129-.313.82.82 0 0 0-.201-.646.84.84 0 0 0-.279-.205.82.82 0 0 0-.339-.072l-1.056-.134-.204 1.598zm8.505.143l-.375 1.141 1.889.623-.333 1.011-1.889-.623-.375 1.141 2.269.748-.319 1.011-3.273-1.081 1.755-5.316 3.278 1.076-.333 1.016-2.292-.748z" fill="#fff"/><path d="M71.536 8.987l.306 4.498-4.449.813-.241-1.205 1.389-.24.731-.102c.223-.018.448-.018.671 0l-3.241-2.512.713-.924 3.241 2.512a3 3 0 0 1-.125-.429 3.35 3.35 0 0 1-.074-.462c0-.152-.037-.328-.051-.513L70.3 9.038l1.236-.051z" fill="#ffcd1e"/><path d="M79.083 29.353l1.167-1.921-.269-.577-1.694.785-.463-.961 5.093-2.355.843 1.801c.611 1.312.18 2.249-.801 2.706-.357.172-.759.225-1.148.152s-.745-.269-1.014-.558l-1.176 2.097-.537-1.168zm1.852-2.947l.463.961a.86.86 0 0 0 .453.488.86.86 0 0 0 .332.075c.115.003.228-.018.335-.06a.82.82 0 0 0 .433-.514c.032-.111.039-.228.022-.342a.81.81 0 0 0-.121-.321l-.463-.961-1.454.674zm3.727 11.879a2.93 2.93 0 0 1-1.688-.132 2.92 2.92 0 0 1-1.331-1.043 2.91 2.91 0 0 1-.074-3.232 2.92 2.92 0 0 1 1.282-1.103c.527-.233 1.112-.306 1.68-.209a2.92 2.92 0 0 1 1.514.756 2.91 2.91 0 0 1 .839 1.467 2.92 2.92 0 0 1-.386 2.207c-.417.656-1.077 1.119-1.837 1.289zm-.236-1.034c.356-.085.678-.273.927-.54s.412-.602.471-.962.009-.729-.143-1.061a1.85 1.85 0 0 0-.708-.804c-.31-.192-.671-.289-1.036-.277s-.719.131-1.016.343a1.85 1.85 0 0 0-.656.847c-.13.341-.156.712-.074 1.068.053.239.154.465.296.665a1.85 1.85 0 0 0 .53.499 1.86 1.86 0 0 0 .682.257 1.84 1.84 0 0 0 .728-.026v-.009zm-.639 9.111l-.963.42a2.79 2.79 0 0 1-.704-1.792 2.93 2.93 0 0 1 .828-2.087 2.94 2.94 0 0 1 2.065-.892c.386-.006.77.064 1.129.206a2.94 2.94 0 0 1 .964.621c.277.268.499.588.652.941A2.95 2.95 0 0 1 88 44.898a2.77 2.77 0 0 1-.639 1.81l-.977-.388a1.95 1.95 0 0 0 .546-1.386 1.84 1.84 0 0 0-.265-.846 1.85 1.85 0 0 0-.63-.626 1.86 1.86 0 0 0-.85-.261 1.85 1.85 0 0 0-1.57.715c-.184.237-.307.516-.359.811s-.031.599.062.885.253.544.468.754v-.005zm-2.755 8.211l.264-1.316 2.815-1.584-2.407-.462.208-1.039 5.505 1.085-.208 1.039-2.278-.462 1.898 2.383-.264 1.312-2.167-2.854-3.366 1.898zm2.801 5.777l-1.116-.462-.755 1.847-.986-.402.75-1.847-1.111-.462-.926 2.203-.991-.402 1.301-3.187 5.199 2.115-1.306 3.187-.986-.402.926-2.189zm-4.102 9.828l-.88-.591.792-1.224-3.82-2.457.574-.887 3.82 2.457.796-1.224.898.577-2.181 3.348zm-8.584 3.879c-.727-.693-.773-1.796.25-2.859a3.06 3.06 0 0 1 1.021-.73c.387-.17.806-.258 1.229-.259l.306 1.03a2.45 2.45 0 0 0-.972.171 2.44 2.44 0 0 0-.825.54c-.509.531-.607 1.025-.324 1.298s.704.12 1.287-.328c1.273-.974 2.079-.951 2.69-.365s.745 1.755-.218 2.771a2.97 2.97 0 0 1-1.815.924l-.352-.956a2.34 2.34 0 0 0 1.389-.693c.394-.406.62-.873.296-1.187s-.602-.129-1.259.356c-.968.697-1.838 1.118-2.704.286zm-2.065 5.348l-.695-.979-1.625 1.145-.616-.868 1.625-1.145-.694-.979-1.954 1.385-.616-.873 2.82-1.986 3.241 4.567-2.82 1.99-.616-.873 1.949-1.385zm-10.394 1.852l2.153-.956-.056-1.141 1.093-.462.171 6.055-.88.388-4.385-4.189 1.088-.462.815.767zm.806.808l1.519 1.515-.111-2.138-1.407.624zm-7.468 5.893l-.25-1.039 1.421-.337-1.051-4.41 1.032-.245 1.051 4.41L55.651 86l.25 1.034-3.875.924z" fill="#fff"/></svg>
